!!!!SEGMENT: pl-sa--597-a-ix-77--001_anonim--dumka.krn
!!!cenid: 18xx:637
!!!COM: Anonim
!!!COM-rismid: pe30004985
!!!CDT:
!!!CNT:
!!!OTL: Dumka
!!!PDT:
!!!AGN: Secular; Dumka
!!!SMS-siglum: PL-SA
!!!SMS-shelfmark: 597/A IX 77
!!!SMS-shelfwork: 001 W
!!!SMS-variant:
!!!SMS-altvar:
!!!NIFC-rismid: 1001065713
!!!URL-scan: http://bc.bdsandomierz.pl/dlibra/publication/1405/edition/1373/content
!!!ONB-nifc: Str. 1
**kern	**kern
*part2	*part1
*staff2	*staff1
*Iempty	*Iempty
*I"	*I"
*I'keyb	*I'keyb
*clefF4	*clefG2
*k[b-]	*k[b-]
*F:	*F:
*M3/4	*M3/4
!LO:SIC:o:s:=:v:metrum "ułamkowe'" 3/4	!LO:TX:a:t=Dumka fiestla [a może "Viestla"?]
4r	4r
=1	=1
4F 4FF/	4.aa 4.cc 4.a\
4A 4AA/	.
.	8ggL 8b- 8g\
4c 4C/	8ff 8a 8f\
.	8eeJ 8g 8e\
=2	=2
4FF/	4.ff 4.a 4.f\
4F\	.
.	8ffL 8a 8f\
4F\	8ee 8g 8e\
.	8ffJ 8a 8f\
=3	=3
4CC/	4.gg 4.b- 4.g\
4C/	.
.	8ggL 8b- 8g\
4C/	8ff#X 8a 8f#X\
.	8ggJ 8b- 8g\
=4	=4
!	!LO:SIC:o:s:=:v:4\right
4F 4FF/	4.aa 4.cc 4.a\
4C 4CC/	.
!	!LO:TX:a:t=P:problem:przednutka podłączona belką
.	8qggL 8qcc\
.	16cccL 16cc\
.	16cccJJ 16cc\
4r	8cccL 8cc\
.	8cccJ 8cc\
=5	=5
4F 4FF/	4.aa 4.cc 4.a\
4A 4AA/	.
.	8ggL 8b- 8g\
4c 4C/	8ffn 8a 8fn\
.	8eeJ 8g 8e\
=6	=6
4FF/	4.ff 4.a 4.f\
4F\	.
.	8ffL 8a 8f\
4F\	8ee 8g 8e\
.	8ffJ 8a 8f\
=7	=7
4c\	4.gg 4.b- 4.g\
4C 4CC/	.
.	8ggL 8b- 8g\
!	!LO:SIC:o:s:=:v:8\right
4C 4CC/	8aa 8cc 8a\
.	8ggJ 8b- 8g\
!!LO:LB:g=original
=	=
4F\	4ff 4a 4f/
4FF/	4r
=8||	=8||
4r	8.ee:L 8.cc: 8.g: 8.e:\
.	16ffJk 16dd 16f\
=9	=9
4C 4CC/	8.ggL 8.ee 8.g\
.	16ff#XK 16dd#X 16f#X\
4E 4EE/	8.gg 8.ee 8.g\
.	16ff#K 16dd# 16f#\
4G 4GG/	8.gg 8.ee 8.g\
.	16ff#Jk 16dd# 16f#\
=10	=10
4c\	4gg 4ee 4g\
4C/	8r
.	8gggL 8eee 8gg\
4c\	8fff 8ddd 8ff\
.	8eeeJ 8ccc 8ee\
=11	=11
4GG/	4fff 4ddd 4ff\
4G\	8r
.	8aaaL 8fff 8aa\
4GG/	8ggg 8eee 8gg\
.	8fffJ 8ddd 8ff\
=12	=12
4C/	4eee 4ccc 4ee\
4CC/	8.r
.	16eeKL 16cc 16e\
4r	8.ff 8.dd 8.f\
.	16ff#XJk 16dd#X 16f#X\
=13	=13
4C 4CC/	8.ggL 8.ee 8.g\
.	16ffK 16dd 16f\
4E 4EE/	8.gg 8.ee 8.g\
.	16ffK 16dd 16f\
4G 4GG/	8.gg 8.ee 8.g\
.	16ffJk 16dd 16f\
=14	=14
8qC/	.
4c\	4.gg 4.ee 4.g\
4C/	.
.	8ggL 8ee 8g\
4r	8aa 8ffn 8an\
.	8ggJ 8ee 8g\
!!LO:LB:g=original
=15	=15
4G 4D 4BBn 4GG/	4.bbn 4.dd 4.bn\
4f 4d 4G\	.
.	8bbL 8dd 8b\
4f 4d 4G\	8ccc 8ee 8cc\
.	8dddJ 8ff 8dd\
=16	=16
4c 4C\	4.eee 4.gg 4.ee\
4e 4c 4G\	.
.	8ggL 8ee 8g\
4e 4c 4G\	8aa 8ff 8a\
.	8ggJ 8ee 8g\
=17	=17
4G 4D 4BBn 4GG/	4.ff 4.dd 4.f\
4f 4d 4G\	.
.	8dddL 8dd\
4f 4d 4G\	8ccc 8ee 8cc\
.	8bbnJ 8dd 8bn\
=18	=18
4c\	4ccc 4ee 4cc\
4C/	4r
4r	4r
=19||	=19||
4C 4CC/	4.gg 4.b- 4.g\
4B- 4G 4C\	.
.	8ggL 8b- 8g\
4B- 4G 4C\	8aa 8cc 8a\
.	8ggJ 8b- 8g\
=20	=20
4F 4FF/	4.ff 4.a 4.f/
4c 4A 4F\	.
.	8ffL 8a 8f/
4c 4A 4F\	8ee 8g 8e/
.	8ffJ 8a 8f/
=21	=21
4C 4CC/	4.gg 4.b- 4.g/
4B- 4G 4C\	.
.	8ccL 8e 8c/
4B- 4G 4C\	8dd 8f 8d/
.	8eeJ 8g 8e/
=22	=22
!!linebreak:original
4F 4FF/	4.ff 4.a 4.f\
4c 4A 4F\	.
.	8ffL 8a 8f\
4c 4A 4F\	8ee 8g 8e\
.	8ffJ 8a 8f\
=23	=23
4C 4CC/	4.gg 4.b- 4.g/
4B- 4G 4C\	.
.	8ggL 8b- 8g/
4B- 4G 4C\	8aa 8cc 8a/
.	8ggJ 8b- 8g/
!!LO:LB:g=original
=24	=24
4F 4FF/	4.ff 4.a 4.f/
4c 4A 4F\	.
.	8ffL 8a 8f\
4c 4A 4F\	8ee 8g 8e\
.	8ffJ 8a 8f\
=25	=25
4C 4CC/	4.gg 4.b- 4.g\
4B- 4G 4C\	.
.	8cccL 8ee 8cc\
4B- 4G 4C\	8ddd 8ff 8dd\
.	8eeeJ 8gg 8ee\
=26	=26
4F\	4fff 4aa 4ff\
4FF/	4r
4r	4r
=27||	=27||
4A 4AA/	4.aa 4.cc#X 4.a\
4e 4c#X 4A\	.
.	8aaL 8cc# 8a\
4e 4c# 4A\	8bb- 8dd 8b-\
.	8aaJ 8cc# 8a\
=28	=28
4D 4DD/	4.ddd 4.ff 4.dd\
4A 4F 4D\	.
.	8dddL 8ff 8dd\
4A 4F 4D\	8ccc#X 8ee 8cc#X\
.	8dddJ 8ff 8dd\
=29	=29
4A 4AA/	4.eee 4.gg 4.ee\
4e 4c#X 4A\	.
.	8aaL 8cc#X 8a\
4e 4c# 4A\	8bb- 8dd 8b-\
.	8aaJ 8cc# 8a\
=30	=30
4D 4DD/	4.ddd 4.ff 4.dd\
4A 4F 4D\	.
.	8dddL 8ff 8dd\
4A 4F 4D\	8ccc#X 8ee 8cc#X\
.	8dddJ 8ff 8dd\
=31	=31
!!linebreak:original
4C 4CC/	4.eee 4.gg 4.ee\
4B- 4G 4C\	.
.	8eeL 8g 8e/
4B- 4G 4C\	8ff 8a 8f/
.	8ggJ 8b- 8g/
=32	=32
4F 4FF/	4.aa 4.ccn 4.a\
4c 4A 4F\	.
.	8aaL 8cc 8a\
4c 4A 4F\	8bb- 8dd 8b-\
.	8aaJ 8cc 8a\
!!LO:LB:g=original
=33	=33
4C 4CC/	4.gg 4.b- 4.g\
4B- 4G 4C\	.
.	8ccL 8e 8c/
4B- 4G 4C\	8dd 8f 8d/
.	8eeJ 8g 8e/
=34	=34
4F\	4ff 4a 4f/
4FF/	4r
4r	4r
=:|!	=:|!
*-	*-
!!!system-decoration: s1,s2
!!!EED: Leszek Kubiak
!!!EST: 2020-12-14
!!!AIN: 2 empty
!!!ENC: Andrzej Borzym
!!!END: 2020-06-20
